X: 7113
T: Christmas Eve
R: reel
M: 4/4
K: Gmajor
|:GE|D2DE G2GA|B2dB ABGA|BAGE DB,DE|GABG ABGE|
DB,DE G2GA|B2dB ABGA|BAGE DB,DE|ABGE G2:|
|:GA|B2Bd edeg|a2ge g2eg|a2ae g2ge|dedB A2GA|
BABd edeg|a2ge g2eg|a2ae gedB|ABGE G2:|
|:GA|BG (3GGG BGBd|egg2 egdc|BG (3GGG BGAG|EA (3AAA EAAc|
BG (3GGG BGBd|egg2 egga|bgag egdB|ABGE G2:|

